X:1 %Music
T:Cupid's Garden
B:Bob Copper, A Song For Every Season, 1971
Z:Jim Copper
F:http://www.folkinfo.org/songs
M:4/4     %Meter
L:1/8     %
K:G
D2 |G2 D2 B,2 G2 |(A2 F2) D2 (EF) |G2 E2 D2 ^C2 | D6 
w:'Twas down in Cup-id's gar-*den I_ wand-ered for to view
A2 |B2 (BA) G2 B2 |(c2 B2) A2 (GA) |B2 G2 E2 D2 | (C2 B,4)
w:The sweet and_ love-ly flow-*ers that_ in the gar-den grew_
GA |B2 A2 G2 B2 |(c2 B2) A2 (GA) |B2 G2 E2 D2 | (C2 B,2 D2)
w:And_ one it was sweet jas-*min the_ li-ly pink and rose__ 
 G2 |D3 B, D2 G2 |(A2 F2) HD2 
w:They are the fin-est flow-*ers 
(GA) |B2 d2 (cB) A2 | B2 G2 E2 C2 |D2 EF G4 |]
w: That_ in the gar-*den grow, that in the gar-den_ grow 